X:1
T:Valse : le fils du cordonnier
E:12
Z:Roger Ngaret (94-95)
R:valse
C:Trad. R. Ngaret
S:
A:
M:4/4
L:1/16
K:C
Q:1/4=180
"C"c4 c4 d4 | e8 f4 | g8 a4 | g8 e4 | "F"f8 g4 | f8 d4 |1 
"C"e8 g4 | "D"f4 e4 d4 :|2 f4 e4 d4 | "C"c12 |: 
e4 c4 G4 | e4 c4 G4 |
"D"f2e2 f4 e4 | "G"d12 |1 d4 B4 G4 | d4 B4 G4 | "D"c2B2 c4 d4 |
"C"e8 G4 :|2 "G"D4 ^F4 A4 | G4 B4 d4 | c4 B4 A4 | G12 |:
G4 ^F4 G4 | G6^F2 G4 | "D"A4 A4 B4 | A12 |1
"G"B4 B4 c4 | d6e2 d4 | "D"c4 B4 A4 | "G"G12 :|2
D4 E4 D4 | "D"^F4 A4 B4 | c4 B4 A4 | "G"G12 ||
"D"A2A2 A4 c4 | "F"f8 A4 | "C"G2G2 G4 c4 | e12 | "G"f4 e4 d4 |
"C"e4 d4 c4 | "G"d4 c4 B4 | "C"c12 |
"D"A2A2 A4 c4 | "F"f8 a4 | "C"g2g2 g4 e4 | g12 | "G"d4 d4 e4 |
"C"f4 g2f2 | "G"e4 e4 d4 | "C"c12 |]



